X: 3
T: Bill Malley's
M: 2/4
L: 1/8
R: polka
K: Gmaj
|: D |\ 
G2 A/B/c | d2 Bd | c2 A/B/c | Bd G>E | 
DG A/B/c | d2 Bd | c2 A/A/d | G2- G :|
|: d |\ 
gd ed | gd ed | BG- Gd | BG e/e/d |
gd/d/ ed | gd/d/ Bd/d/ | e/e/d FA | G2- G :|
